icon-themes/breeze_svg/cmd/lc_diagramaxisx.svg

<svg viewBox="0 0 24 24" xmlns="http://www.w3.org/2000/svg"><path d="m6 5v12h-1v1h1v1h1v-1h12v-1h-12v-12z" fill="#4d4d4d"/><path d="m8 19v1h10v-1z" fill="#1d99f3"/></svg>

<svg xmlns="http://www.w3.org/2000/svg" viewBox="0 0 24 24">
 <path 
     style="fill:#4d4d4d" 
     d="M 6 5 L 6 17 L 5 17 L 5 18 L 6 18 L 6 19 L 7 19 L 7 18 L 19 18 L 19 17 L 7 17 L 7 5 L 6 5 z "
     />
 <path 
     style="fill:#1d99f3" 
     d="M 8 19 L 8 20 L 18 20 L 18 19 L 8 19 z "
     />
 </svg>
